svgs/sharp-light/badger-honey.svg

<svg xmlns="http://www.w3.org/2000/svg" viewBox="0 0 640 512"><!--! Font Awesome Pro 6.6.0 by @fontawesome - https://fontawesome.com License - https://fontawesome.com/license (Commercial License) Copyright 2024 Fonticons, Inc. --><path d="M420.2 64l3.8 0 72 0 3.3 0 3.1 1.3 128 56 9.6 4.2 0 10.5 0 64 0 6.6-4.7 4.7-32 32-4.7 4.7-6.6 0c-5.3 0-10.7 .2-16 .6l0 23.4 0 16-32 0 0-16 0-19.1c-53.3 10.6-102.5 36.8-136.6 62.1l24.4 146.4 3.1 18.6L416 480l-88 0-13.6 0-2.2-13.4L293.1 352l-94 0L185 385l22.3 74.4 6.2 20.6L192 480l-88 0-11.9 0-3.4-11.4-24-80-1.3-4.5 1.3-4.5 11.1-38.8C58.9 333.3 44 322.3 32 308.7L32 320l0 16L0 336l0-16 0-96C0 153.3 57.3 96 128 96l228.2 0 60.6-30.3 3.4-1.7zM99.8 315.8l15 4.6-4.3 15.1L96.7 383.9 115.9 448l54.6 0-17.8-59.4L151 383l2.3-5.3 20.6-48L178 320l10.6 0 118.1 0 13.6 0 2.2 13.4L341.6 448l55.6 0L374.2 310.7l-1.6-9.3 7.4-5.9c45.6-35.9 122.9-77.3 205.2-79.4L608 193.4l0-25.4-96.4 0c.3 1.3 .4 2.6 .4 4c0 11-9 20-20 20s-20-9-20-20c0-1.4 .1-2.7 .4-4l-52.5 0L255.4 254.2l-3.5 1.8-3.9 0-32 0c-68.3 0-124.9-50.4-134.5-116C52 156.4 32 187.9 32 224c0 43.2 28.5 79.8 67.8 91.8zM427.8 96l-60.6 30.3-3.4 1.7-3.8 0-232 0c-5.3 0-10.5 .4-15.6 1.3C117.1 182.4 161.7 224 216 224l28.1 0 164.5-86.2 3.5-1.8 3.9 0 168.1 0L492.7 96l-64.9 0z"/></svg>

<svg xmlns="http://www.w3.org/2000/svg" viewBox="0 0 640 512"><!--! Font Awesome Pro 6.4.2 by @fontawesome - https://fontawesome.com License - https://fontawesome.com/license (Commercial License) Copyright 2023 Fonticons, Inc. --><path d="M420.2 64H424h72 3.3l3.1 1.3 128 56 9.6 4.2V136v64 6.6l-4.7 4.7-32 32-4.7 4.7H592c-5.3 0-10.7 .2-16 .6V272v16H544V272 252.9c-53.3 10.6-102.5 36.8-136.6 62.1l24.4 146.4 3.1 18.6H416 328 314.4l-2.2-13.4L293.1 352h-94L185 385l22.3 74.4 6.2 20.6H192 104 92.1l-3.4-11.4-24-80-1.3-4.5 1.3-4.5 11.1-38.8C58.9 333.3 44 322.3 32 308.7V320v16H0V320 224C0 153.3 57.3 96 128 96H356.2l60.6-30.3 3.4-1.7zM99.8 315.8l15 4.6-4.3 15.1L96.7 383.9 115.9 448h54.6l-17.8-59.4L151 383l2.3-5.3 20.6-48L178 320h10.6H306.7h13.6l2.2 13.4L341.6 448h55.6L374.2 310.7l-1.6-9.3 7.4-5.9c45.6-35.9 122.9-77.3 205.2-79.4L608 193.4V168H511.6c.3 1.3 .4 2.6 .4 4c0 11-9 20-20 20s-20-9-20-20c0-1.4 .1-2.7 .4-4H419.9L255.4 254.2l-3.5 1.8H248 216c-68.3 0-124.9-50.4-134.5-116C52 156.4 32 187.9 32 224c0 43.2 28.5 79.8 67.8 91.8zM427.8 96l-60.6 30.3-3.4 1.7H360 128c-5.3 0-10.5 .4-15.6 1.3C117.1 182.4 161.7 224 216 224h28.1l164.5-86.2 3.5-1.8H416 584.1L492.7 96H427.8z"/></svg>
